packages/icons/svg/multicolor/geniet-gpoint.svg

<svg width="24" height="24" viewBox="0.10 0.10 23.81 23.81" fill="none" xmlns="http://www.w3.org/2000/svg">
<g clip-path="url(#clip0_3001_152804)">
<path d="M12 22C17.5228 22 22 17.5228 22 12C22 6.47715 17.5228 2 12 2C6.47715 2 2 6.47715 2 12C2 17.5228 6.47715 22 12 22Z" fill="currentColor"/>
<path d="M12.2303 17.5596C12.1603 17.5596 12.0903 17.5596 12.0203 17.5596C11.2803 17.5296 10.4003 17.4896 9.34032 16.8396C6.91032 15.3496 6.68032 12.8296 6.70032 11.8196C6.73032 9.86961 7.60032 8.18961 9.10032 7.20961C10.8503 6.04961 13.9203 6.00961 16.0003 7.92961C16.4803 8.36961 16.5103 9.10961 16.0703 9.58961C15.6303 10.0696 14.8803 10.0996 14.4103 9.65961C13.2303 8.56961 11.3903 8.52961 10.4003 9.17961C9.55032 9.73961 9.08032 10.6896 9.06032 11.8596C9.05032 12.6196 9.23032 14.0096 10.5803 14.8496C11.1103 15.1796 11.5203 15.1996 12.0403 15.2196C12.9603 15.2696 13.9403 14.8596 14.1803 14.3996C14.2903 14.1896 14.3403 13.9796 14.3303 13.7496V13.6296H12.5403C11.8903 13.6296 11.3603 13.0996 11.3603 12.4496C11.3603 11.7996 11.8903 11.2696 12.5403 11.2696H15.5103C16.1603 11.2696 16.6903 11.7996 16.6903 12.4496V13.7196C16.7003 14.3096 16.5703 14.9196 16.2803 15.4796C15.5603 16.8896 13.7503 17.5896 12.2503 17.5896L12.2303 17.5596Z" fill="white"/>
</g>
<defs>
<clipPath id="clip0_3001_152804">
<rect width="24" height="24" fill="white"/>
</clipPath>
</defs>
</svg>

<svg xmlns="http://www.w3.org/2000/svg" width="24" height="24" fill="none" viewBox="0 0 24 24">
  <path fill="currentColor" d="M12 22c5.523 0 10-4.477 10-10S17.523 2 12 2 2 6.477 2 12s4.477 10 10 10Z"/>
  <path fill="#fff" d="M12.23 17.56h-.21c-.74-.03-1.62-.07-2.68-.72-2.43-1.49-2.66-4.01-2.64-5.02.03-1.95.9-3.63 2.4-4.61 1.75-1.16 4.82-1.2 6.9.72.48.44.51 1.18.07 1.66s-1.19.51-1.66.07c-1.18-1.09-3.02-1.13-4.01-.48-.85.56-1.32 1.51-1.34 2.68-.01.76.17 2.15 1.52 2.99.53.33.94.35 1.46.37.92.05 1.9-.36 2.14-.82.11-.21.16-.42.15-.65v-.12h-1.79c-.65 0-1.18-.53-1.18-1.18 0-.65.53-1.18 1.18-1.18h2.97c.65 0 1.18.53 1.18 1.18v1.27c.01.59-.12 1.2-.41 1.76-.72 1.41-2.53 2.11-4.03 2.11l-.02-.03Z"/>
</svg>
